X:4
T:Beggar Girl,The. TLY.004
M:6/8
L:1/8
Q:3/8=100
S:Wm.Tildesley,Swinton,Lancs.1860s.
R:.Misc.
O:England.
A:Lancashire.
H:1860.
Z:vmp.Taz Tarry.
K:G
d>cB d>cB|A>GA B3|d>cB d>cB|A>GA G2d|!
d>cB d>cB| A>GA B>cd|d>cB d>cB|A>GA G2z:||!
DGB DAc|DcB {B}A>GA|DG=F E2 â€œ^Rallantandoâ€c/c/|BAG d2 c|!
d>cB d>cB|A>GA B>cd|d>cB e>fg|B>cA G2 z|]

